img/svg/tab-icons/book-pen-ico.svg

<svg  width="24" height="24" viewBox="0 0 24 24" fill="#E0E0E0"  xmlns="http://www.w3.org/2000/svg">
<path d="M23.5798 1.03236C23.3445 0.855299 23.0398 0.798902 22.7569 0.880201C21.6709 1.19203 20.2868 1.10396 18.5345 0.992628C17.4374 0.922865 16.1939 0.843763 14.7657 0.843763C13.6465 0.843763 12.6409 1.33723 11.9532 2.11726C11.2654 1.33723 10.26 0.843763 9.14065 0.843763C7.71261 0.843763 6.46895 0.922865 5.37179 0.992628C3.61946 1.10414 2.23537 1.19221 1.14937 0.880201C0.866469 0.798902 0.561781 0.855299 0.326673 1.03236C0.0913824 1.20961 -0.0468624 1.48683 -0.0468624 1.78126V17.3343C-0.0494259 18.3377 0.339491 19.2816 1.04811 19.992C1.75673 20.7025 2.69972 21.0938 3.70314 21.0938H10.5C11.0178 21.0938 11.4375 20.6741 11.4375 20.1563C11.4375 19.6385 11.0178 19.2188 10.5 19.2188H3.70314C3.20143 19.2188 2.72994 19.0232 2.37563 18.668C2.02132 18.3128 1.82686 17.8407 1.82814 17.3366V16.8393C2.3802 17.1594 3.02034 17.3438 3.70314 17.3438H10.6875C10.8959 17.3438 11.0385 17.4732 11.1026 17.5943C11.2709 17.912 11.5957 18.0932 11.9319 18.0932C12.0799 18.0932 12.23 18.0583 12.3697 17.9841C12.6521 17.8347 12.8262 17.5615 12.8615 17.2669C12.8799 17.1938 12.8907 17.1178 12.8907 17.0391V4.59377C12.8907 3.55995 13.7317 2.71876 14.7657 2.71876C16.1342 2.71876 17.3462 2.79585 18.4155 2.86378C19.8139 2.95277 20.9999 3.02821 22.0782 2.91121V9.65627C22.0782 10.1741 22.4978 10.5938 23.0157 10.5938C23.5335 10.5938 23.9532 10.1741 23.9532 9.65627V1.78126C23.9532 1.48683 23.8149 1.20961 23.5798 1.03236ZM3.70314 15.4688C2.66933 15.4688 1.82814 14.6276 1.82814 13.5938V2.91121C2.90645 3.02821 4.09224 2.95277 5.49062 2.86378C6.56014 2.79585 7.77212 2.71876 9.14065 2.71876C10.1745 2.71876 11.0157 3.55995 11.0157 4.59377V15.4918C10.908 15.4766 10.7985 15.4688 10.6875 15.4688H3.70314ZM9.4219 6.14064C9.4219 6.65847 9.00222 7.07814 8.4844 7.07814H4.40627C3.88845 7.07814 3.46877 6.65847 3.46877 6.14064C3.46877 5.62282 3.88845 5.20314 4.40627 5.20314H8.4844C9.00222 5.20314 9.4219 5.62282 9.4219 6.14064ZM8.01565 9.89065C8.01565 10.4085 7.59597 10.8281 7.07815 10.8281H4.40627C3.88845 10.8281 3.46877 10.4085 3.46877 9.89065C3.46877 9.37282 3.88845 8.95315 4.40627 8.95315H7.07815C7.59597 8.95315 8.01565 9.37282 8.01565 9.89065ZM19.1527 12.7762L14.0058 17.9118C13.8965 18.0209 13.8157 18.1553 13.7708 18.3031L12.6499 21.9932C12.5506 22.3204 12.6372 22.6758 12.8758 22.9204C13.0547 23.1037 13.2977 23.2033 13.5471 23.2033C13.6304 23.2033 13.7146 23.1922 13.7972 23.1691L17.5813 22.121C17.7369 22.0778 17.8788 21.9952 17.9933 21.881L23.1296 16.7545C24.226 15.6579 24.226 13.8736 23.1296 12.7769C22.0329 11.6803 20.2486 11.6803 19.1527 12.7762ZM16.843 20.3797L14.9394 20.907L15.4964 19.073L18.9694 15.6078L20.2955 16.9338L16.843 20.3797ZM21.8042 15.4279L21.6226 15.6092L20.2967 14.2833L20.4778 14.1028C20.8433 13.7371 21.438 13.7371 21.8035 14.1028C22.1692 14.4683 22.1692 15.063 21.8042 15.4279Z"/>
</svg>

<svg width="24" height="24" fill="#E0E0E0" xmlns="http://www.w3.org/2000/svg"><path d="M23.58 1.032a.938.938 0 00-.823-.152c-1.086.312-2.47.224-4.223.113-1.097-.07-2.34-.15-3.768-.15-1.12 0-2.125.494-2.813 1.274A3.741 3.741 0 009.141.844c-1.428 0-2.672.079-3.77.149-1.752.111-3.136.2-4.222-.113a.937.937 0 00-1.196.901v15.553a3.725 3.725 0 001.095 2.658 3.725 3.725 0 002.655 1.102H10.5a.937.937 0 100-1.875H3.703c-.502 0-.973-.196-1.327-.551a1.864 1.864 0 01-.548-1.331v-.498c.552.32 1.192.505 1.875.505h6.985a.47.47 0 01.415.25.937.937 0 001.758-.327.93.93 0 00.03-.228V4.594c0-1.034.84-1.875 1.875-1.875 1.368 0 2.58.077 3.65.145 1.398.089 2.584.164 3.662.047v6.745a.937.937 0 101.875 0V1.781a.938.938 0 00-.373-.749zM3.703 15.47a1.877 1.877 0 01-1.875-1.875V2.91c1.078.117 2.264.042 3.663-.047 1.07-.068 2.281-.145 3.65-.145 1.034 0 1.875.841 1.875 1.875v10.898a2.347 2.347 0 00-.329-.023H3.704zm5.719-9.33c0 .517-.42.937-.938.937H4.406a.937.937 0 110-1.875h4.078c.518 0 .938.42.938.938zM8.016 9.89c0 .518-.42.937-.938.937H4.406a.937.937 0 110-1.875h2.672c.518 0 .938.42.938.938zm11.137 2.885l-5.147 5.136a.938.938 0 00-.235.391l-1.121 3.69a.938.938 0 001.147 1.176l3.784-1.048a.94.94 0 00.412-.24l5.137-5.127a2.816 2.816 0 000-3.977 2.816 2.816 0 00-3.977 0zm-2.31 7.604l-1.904.527.557-1.834 3.473-3.465 1.326 1.326-3.452 3.446zm4.961-4.952l-.181.181-1.326-1.326.18-.18a.938.938 0 011.327 1.325z"/></svg>
